X: 11074
Q: "Moderate."
M: 3/4
L: 1/4
K: Fmix
[|\
fce | dBd | cAc | e3 |\
efe | d2c | fce | dBd |\
cAc | f3 | fgf | =e2c |]
[|\
fcB | A2B | c3 | e3 |\
e>fe | d2c | fcB | A2B |\
c3 | f3 | fgf | =e2c |]
[|\
efe | d2c | A2c | G2c |\


